icons/circle/48/opera.svg

<svg version="1.1" viewBox="0 0 48 48" xmlns="http://www.w3.org/2000/svg">
 <defs>
  <linearGradient id="linearGradient3764-3" x1="1" x2="47" gradientTransform="rotate(-90 24 24)" gradientUnits="userSpaceOnUse">
   <stop stop-color="#3cb2dc" offset="0"/>
   <stop stop-color="#4ab4e2" offset="1"/>
  </linearGradient>
 </defs>
 <path d="m36.31 5c5.859 4.062 9.688 10.831 9.688 18.5 0 12.426-10.07 22.5-22.5 22.5-7.669 0-14.438-3.828-18.5-9.688 1.037 1.822 2.306 3.499 3.781 4.969 4.085 3.712 9.514 5.969 15.469 5.969 12.703 0 23-10.298 23-23 0-5.954-2.256-11.384-5.969-15.469-1.469-1.475-3.147-2.744-4.969-3.781zm4.969 3.781c3.854 4.113 6.219 9.637 6.219 15.719 0 12.703-10.297 23-23 23-6.081 0-11.606-2.364-15.719-6.219 4.16 4.144 9.883 6.719 16.219 6.719 12.703 0 23-10.298 23-23 0-6.335-2.575-12.06-6.719-16.219z" opacity=".05"/>
 <path d="m41.28 8.781c3.712 4.085 5.969 9.514 5.969 15.469 0 12.703-10.297 23-23 23-5.954 0-11.384-2.256-15.469-5.969 4.113 3.854 9.637 6.219 15.719 6.219 12.703 0 23-10.298 23-23 0-6.081-2.364-11.606-6.219-15.719z" opacity=".1"/>
 <path d="m31.25 2.375c8.615 3.154 14.75 11.417 14.75 21.13 0 12.426-10.07 22.5-22.5 22.5-9.708 0-17.971-6.135-21.12-14.75a23 23 0 0 0 44.875 -7 23 23 0 0 0 -16 -21.875z" opacity=".2"/>
 <path d="m24 1c12.703 0 23 10.297 23 23s-10.297 23-23 23-23-10.297-23-23 10.297-23 23-23z" fill="url(#linearGradient3764-3)"/>
 <path d="m40.03 7.531c3.712 4.084 5.969 9.514 5.969 15.469 0 12.703-10.297 23-23 23-5.954 0-11.384-2.256-15.469-5.969 4.178 4.291 10.01 6.969 16.469 6.969 12.703 0 23-10.298 23-23 0-6.462-2.677-12.291-6.969-16.469z" opacity=".1"/>
 <path d="m25 10a15 15 0 0 0 -15 15 15 15 0 0 0 15 15 15 15 0 0 0 15 -15 15 15 0 0 0 -15 -15zm0 4a8 11 0 0 1 8 11 8 11 0 0 1 -8 11 8 11 0 0 1 -8 -11 8 11 0 0 1 8 -11z" style="fill-opacity:.95261;opacity:.1"/>
 <path d="m24 9a15 15 0 0 0 -15 15 15 15 0 0 0 15 15 15 15 0 0 0 15 -15 15 15 0 0 0 -15 -15zm0 4a8 11 0 0 1 8 11 8 11 0 0 1 -8 11 8 11 0 0 1 -8 -11 8 11 0 0 1 8 -11z" style="fill:#fa4655"/>
 <path d="m28 11c-3.4223 0.0018-6.6796 1.5925-8.9531 4.3633 1.4111-1.5304 3.1558-2.3632 4.9531-2.3633 4.4183-2.42e-4 8 4.9249 8 11s-3.5817 11.002-8 11c-1.8144-9.61e-4 -3.574-0.85452-4.9902-2.4141 2.3429 2.7425 5.5477 4.4128 8.9902 4.4141 2.0061 7e-4 3.9787-0.55416 5.7383-1.5977 5.12e-4 -3.04e-4 0.0014 3.04e-4 2e-3 0 3.3363-2.8487 5.262-7.0156 5.2597-11.402-0.0024-4.4218-1.963-8.6155-5.3477-11.461-1.7387-1.0085-3.6801-1.5401-5.6523-1.5391z" style="opacity:.25"/>
</svg>

<svg viewBox="0 0 48 48" xmlns="http://www.w3.org/2000/svg">
  <defs>
    <linearGradient id="a" x1="1" x2="47" gradientTransform="rotate(-90 24 24)" gradientUnits="userSpaceOnUse">
      <stop stop-color="#3cb2dc" offset="0"/>
      <stop stop-color="#4ab4e2" offset="1"/>
    </linearGradient>
  </defs>
  <path d="M36.31 5c5.859 4.062 9.688 10.831 9.688 18.5 0 12.426-10.07 22.5-22.5 22.5-7.669 0-14.438-3.828-18.5-9.688a23.24 23.24 0 0 0 3.781 4.969 22.923 22.923 0 0 0 15.469 5.969c12.703 0 23-10.298 23-23a22.92 22.92 0 0 0-5.969-15.469A23.216 23.216 0 0 0 36.31 5zm4.969 3.781A22.911 22.911 0 0 1 47.498 24.5c0 12.703-10.297 23-23 23a22.909 22.909 0 0 1-15.719-6.219C12.939 45.425 18.662 48 24.998 48c12.703 0 23-10.298 23-23 0-6.335-2.575-12.06-6.719-16.219z" opacity=".05"/>
  <path d="M41.28 8.781a22.923 22.923 0 0 1 5.969 15.469c0 12.703-10.297 23-23 23A22.92 22.92 0 0 1 8.78 41.281 22.911 22.911 0 0 0 24.499 47.5c12.703 0 23-10.298 23-23A22.909 22.909 0 0 0 41.28 8.781z" opacity=".1"/>
  <path d="M31.25 2.375C39.865 5.529 46 13.792 46 23.505c0 12.426-10.07 22.5-22.5 22.5-9.708 0-17.971-6.135-21.12-14.75a23 23 0 0 0 44.875-7 23 23 0 0 0-16-21.875z" opacity=".2"/>
  <path d="M24 1c12.703 0 23 10.297 23 23S36.703 47 24 47 1 36.703 1 24 11.297 1 24 1z" fill="url(#a)"/>
  <path d="M40.03 7.531A22.922 22.922 0 0 1 45.999 23c0 12.703-10.297 23-23 23A22.92 22.92 0 0 1 7.53 40.031C11.708 44.322 17.54 47 23.999 47c12.703 0 23-10.298 23-23 0-6.462-2.677-12.291-6.969-16.469z" opacity=".1"/>
  <path d="M25 10a15 15 0 0 0-15 15 15 15 0 0 0 15 15 15 15 0 0 0 15-15 15 15 0 0 0-15-15zm0 4a8 11 0 0 1 8 11 8 11 0 0 1-8 11 8 11 0 0 1-8-11 8 11 0 0 1 8-11z" fill-opacity=".953" opacity=".1"/>
  <path d="M24 9A15 15 0 0 0 9 24a15 15 0 0 0 15 15 15 15 0 0 0 15-15A15 15 0 0 0 24 9zm0 4a8 11 0 0 1 8 11 8 11 0 0 1-8 11 8 11 0 0 1-8-11 8 11 0 0 1 8-11z" fill="#fa4655"/>
  <path d="M28 11c-3.422.002-6.68 1.593-8.953 4.363C20.458 13.833 22.203 13 24 13c4.418 0 8 4.925 8 11s-3.582 11.002-8 11c-1.814-.001-3.574-.855-4.99-2.414C21.353 35.328 24.557 36.999 28 37c2.006 0 3.979-.554 5.738-1.598h.002A14.988 14.988 0 0 0 39 24a14.988 14.988 0 0 0-5.348-11.46A11.242 11.242 0 0 0 28 11z" opacity=".25"/>
</svg>
